; generated by Orca (demo)
; printing object demo_cube.stl id:1 copy 0
; filament_type = PLA
; filament_diameter = 1.75
; nozzle_diameter = 0.4
; total layer number = 3
; max_z_height: 0.6
; estimated printing time (normal mode) = 0h 0m 15s
G90
M82
G28 X0 Y0 Z0
M104 S200
M109 S200
;TYPE:WALL-OUTER
G1 X150.0 Y150.0 Z0.2 F12000
G1 X151.0 Y150.0 E0.05 F1200
G1 X151.0 Y151.0 E0.10
G1 X150.0 Y151.0 E0.15
G1 X150.0 Y150.0 E0.20
;TYPE:WALL-OUTER
G1 Z0.4 F1200
G1 X151.0 Y150.0 E0.25
G1 X151.0 Y151.0 E0.30
G1 X150.0 Y151.0 E0.35
G1 X150.0 Y150.0 E0.40
;TYPE:WALL-OUTER
G1 Z0.6 F1200
G1 X151.0 Y150.0 E0.45
G1 X151.0 Y151.0 E0.50
G1 X150.0 Y151.0 E0.55
G1 X150.0 Y150.0 E0.60
M104 S0
